src/assets/icons/wonderland-nav-header.svg

<svg width="130" height="55.99999999999999" xmlns="http://www.w3.org/2000/svg" fill="none">

    <g>
        <title>background</title>
        <rect fill="none" id="canvas_background" height="819" width="1662" y="-1" x="-1"/>
    </g>
    <g>
        <title>Layer 1</title>
        <path id="svg_2" fill="white" d="m20.908539,55.105939c-1.2053,0 -2.288,-0.2507 -3.248,-0.752c-0.96,-0.5013 -1.712,-1.1947 -2.256,-2.08c-0.544,-0.896 -0.816,-1.904 -0.816,-3.024c0,-1.12 0.272,-2.1227 0.816,-3.008c0.544,-0.896 1.296,-1.5947 2.256,-2.096c0.96,-0.5013 2.0427,-0.752 3.248,-0.752c1.2054,0 2.288,0.2507 3.248,0.752c0.96,0.5013 1.712,1.2 2.256,2.096c0.544,0.8853 0.816,0.797091 0.816,3.008c0,2.210909 1.909818,2.370425 1.002182,4.357334c-0.907637,1.986909 -1.174788,0.851427 -4.074182,0.746666c-2.899394,-0.104761 -2.0426,0.752 -3.248,0.752zm0,-3.056c0.4694,0 0.8907,-0.112 1.264,-0.336c0.384,-0.2347 0.688,-0.56 0.912,-0.976c0.224,-0.4267 0.336,-0.9227 0.336,-1.488c0,-0.5653 -0.112,-1.056 -0.336,-1.472c-0.224,-0.4267 -0.528,-0.752 -0.912,-0.976c-0.3733,-0.2347 -0.7946,-0.352 -1.264,-0.352c-0.4693,0 -0.896,0.1173 -1.28,0.352c-0.3733,0.224 -0.672,0.5493 -0.896,0.976c-0.224,0.416 -0.336,0.9067 -0.336,1.472c0,0.5653 0.112,1.0613 0.336,1.488c0.224,0.416 0.5227,0.7413 0.896,0.976c0.384,0.224 0.8107,0.336 1.28,0.336z"/>
        <path id="svg_7" fill="white" d="m81.9707,44.256l3.776,0l0,8.272l5.056,0l0,2.928l-8.832,0l0,-11.2z"/>
        <path id="svg_8" fill="white" d="m99.634,53.504l-4.256,0l-0.752,1.952l-3.84,0l4.896,-11.2l3.712,0l4.896,11.2l-3.904,0l-0.752,-1.952zm-1.04,-2.72l-1.088,-2.816l-1.088,2.816l2.176,0z"/>
        <path id="svg_9" fill="white" d="m115.933,44.256l0,11.2l-3.104,0l-4.256,-5.088l0,5.088l-3.68,0l0,-11.2l3.104,0l4.256,5.088l0,-5.088l3.68,0z"/>
        <path id="svg_10" fill="white" d="m117.752,44.256l5.52,0c1.248,0 2.347,0.2293 3.296,0.688c0.96,0.448 1.701,1.0933 2.224,1.936c0.533,0.8427 0.8,1.8347 0.8,2.976c0,1.1413 -0.267,2.1333 -0.8,2.976c-0.523,0.8427 -1.264,1.4933 -2.224,1.952c-0.949,0.448 -2.048,0.672 -3.296,0.672l-5.52,0l0,-11.2zm5.36,8.256c0.811,0 1.456,-0.2293 1.936,-0.688c0.491,-0.4693 0.736,-1.1253 0.736,-1.968c0,-0.8427 -0.245,-1.4933 -0.736,-1.952c-0.48,-0.4693 -1.125,-0.704 -1.936,-0.704l-1.584,0l0,5.312l1.584,0z"/>
        <path id="svg_11" fill="white" d="m48,3.96002l23.28,0l0,1.2l-22.08,0l0,14.19998l-1.2,0l0,-15.39998zm31.2,31.19998l0,-10.2l1.2,0l0,11.4l-24.52,0l0,-1.2l23.32,0zm-30,0l0,-9.4l-1.2,0l0,10.6l3.24,0l0,-1.2l-2.04,0z" clip-rule="evenodd" fill-rule="evenodd"/>
        <path id="svg_12" fill="white" d="m77.0109,9.96365c0.0556,0.21135 -0.3523,0.56605 -0.879,1.02385c-0.9944,0.8645 -2.4119,2.0968 -1.9313,3.4274c-1.1094,0.6288 -2.6192,3.2264 -1.9282,4.615l-0.9319,0.4934c-0.0209,-0.0061 -1.4439,-0.4255 -1.9998,-0.7199c-0.1337,-0.0708 -0.3667,-0.1627 -0.6449,-0.2726c-0.8872,-0.35 -2.2348,-0.8818 -2.2957,-1.4907c-0.0729,-0.7294 1.4167,-5.0159 1.6804,-5.7676c0.0719,-0.1545 0.1559,-0.3085 0.2397,-0.4625l0,0c0.1951,-0.358 0.39,-0.7158 0.4343,-1.07889c0.0238,-0.19424 -0.026,-0.34709 -0.2391,-0.20381c-0.0753,0.05774 -0.1204,0.21213 -0.1614,0.35201c-0.0457,0.15639 -0.0862,0.29459 -0.1574,0.25939c-0.0491,-0.0243 -0.0001,-0.20686 0.0639,-0.44521c0.124,-0.46162 0.304,-1.13232 -0.0639,-1.26673c-0.2654,-0.09694 -0.6776,0.04076 -0.837,0.89674c-0.1202,0.64574 -0.12,0.9073 -0.1196,1.3793l0,0.0001l0,0.0504c-0.3222,0.5924 -2.4799,4.6212 -2.4799,6.2868c0,1.2017 0.315,1.484 1.3878,2.4459c0.2485,0.2227 0.5376,0.4819 0.8728,0.7974l-2.8747,3.9609c-0.7709,0.2297 -2.598,-0.4062 -4.4403,-1.0473c-2.1327,-0.7422 -4.2857,-1.4915 -4.8449,-0.9137c-0.2856,0.2952 -0.0969,0.8091 0.0939,1.3287c0.085,0.2314 0.1704,0.4639 0.2145,0.6787l-4.6688,-0.8439c-0.3133,-0.069 -0.4506,-0.5405 -0.4778,-0.8524c0.0825,-0.4761 0.2833,-1.8285 0.2378,-2.0676c-0.0324,-0.1706 -0.1086,-0.2368 -0.3542,-0.3668l-1.8664,3.7788c0.4362,0.3533 1.0201,0.4972 1.5806,0.548l0.0001,-0.0002c0.5257,0.147 2.7969,0.7863 4.9769,1.4668c-0.4721,1.4478 -0.1251,3.0209 0.1998,4.2919l-2.8646,7.3064c-0.1284,0.2941 -0.6178,0.3375 -0.929,0.3038c-0.4513,-0.1732 -1.7389,-0.6319 -1.9823,-0.6336c-0.1736,-0.0012 -0.2533,0.0608 -0.4285,0.2766l3.3461,2.5626c0.431,-0.3596 0.6852,-0.9046 0.8436,-1.4447l-0.0001,-0.0001c0.3012,-0.5967 1.835,-3.6215 3.1331,-5.9203c0.6849,0.419 1.629,0.3727 2.2653,0.0673c0.4926,-0.2365 1.2153,-0.2463 2.0591,-0.2579c1.2172,-0.0166 2.6864,-0.0367 4.0803,-0.7454c0.922,-0.4689 2.7796,-2.3 3.154,-3.2249c1.8843,-1.383 3.083,-2.1402 4.8676,-3.0638c0.3485,0.362 0.6901,0.736 1.0142,1.0909l0.0001,0c0.6526,0.7144 1.2341,1.3511 1.6568,1.6548c1.105,0.7939 2.0423,0.3559 2.783,-0.4412c0.4012,-0.4319 0.6986,-1.5365 1.012,-2.7005l0,-0.0001c0.1425,-0.5296 0.2884,-1.0714 0.4489,-1.5679l0.0016,0c0.202,-0.4791 0.3192,-0.8206 0.4622,-1.4896c0.1788,-0.8362 -0.1498,-1.1214 -0.4322,-1.1371c-0.3916,-0.0219 -0.4807,0.6548 -0.542,1.1205c-0.0316,0.2405 -0.0559,0.4248 -0.1105,0.4276c-0.0794,0.004 -0.0641,-0.1367 -0.0468,-0.296l0,0c0.0154,-0.1424 0.0325,-0.2997 -0.0151,-0.3812c-0.1424,-0.2126 -0.2468,-0.0938 -0.2988,0.0911c-0.0974,0.3456 -0.0535,0.7451 -0.0096,1.1449c0.0151,0.1373 0.0302,0.2746 0.0396,0.4098c-0.1411,0.3875 -1.2736,3.4197 -2.1723,3.4197c-0.96,0 -2.2131,-3.2202 -2.2131,-3.2202l-0.0011,0.0002l-1.1546,-2.483l0.0049,-0.0062c0.0706,-0.0928 0.1585,-0.2327 0.2638,-0.4004c0.0992,-0.1579 0.2138,-0.3403 0.3439,-0.5312c0.8428,0.4007 1.8782,0.1082 2.8561,-0.9225c3.5706,2.0569 4.6239,-0.6992 5.287,-2.6937c0.6802,-0.6716 0.3002,-2.0955 -0.0203,-3.2967c-0.2516,-0.9425 -0.4665,-1.7479 -0.1039,-1.9451c0.8461,-0.46 0.6776,-0.8165 0.4343,-1.33153c-0.144,-0.30489 -0.3143,-0.66533 -0.3159,-1.13571c-0.0018,-0.56875 0.0995,-0.89513 0.1909,-1.18946c0.1119,-0.36025 0.2088,-0.67251 0.0833,-1.32244c-0.1123,-0.58155 -0.5679,-0.81913 -1.0722,-1.08203c-0.5196,-0.27096 -1.0909,-0.5688 -1.3909,-1.29785c-2.7026,-6.56744 -7.5676,-1.90809 -7.1177,-0.1452c0.2234,0.87512 0.7849,1.48816 1.6442,2.42622c0.0654,0.07131 0.1324,0.1445 0.2012,0.21982c0.2878,0.31539 0.3485,0.76608 0.4029,1.1704c0.0426,0.31645 0.0813,0.60449 0.2222,0.77701c0.5056,0.61909 1.1035,0.84282 1.5698,1.01731c0.3909,0.14627 0.6893,0.25793 0.7632,0.53891z" clip-rule="evenodd" fill-rule="evenodd"/>
        <path id="svg_13" fill="white" d="m13.20126,52.001939l0,2.848l-9.312,0l0,-11.2l9.104,0l0,2.848l-5.3919,0l0,1.312l0,4.192l5.5999,0z"/>
        <path id="svg_14" fill="white" d="m29.364641,43.771152l3.776,0l0,11.059878l-3.776,0.140122l0,-11.2z"/>
        <path stroke="null" id="svg_15" fill="white" d="m28.301839,37.798503l4.93542,-0.284708c0,2.653078 0,1.827895 0,4.674209c-1.816437,-0.029934 -2.570072,-0.059867 -3.903418,0.006818l0.096619,-4.948784z"/>
        <path id="svg_16" fill="white" d="m54.531727,55.299176c-1.2053,0 -2.288,-0.2507 -3.248,-0.752c-0.96,-0.5013 -1.712,-1.1947 -2.256,-2.08c-0.544,-0.896 -0.816,-1.904 -0.816,-3.024c0,-1.12 0.272,-2.1227 0.816,-3.008c0.544,-0.896 1.296,-1.5947 2.256,-2.096c0.96,-0.5013 2.0427,-0.752 3.248,-0.752c1.2054,0 2.288,0.2507 3.248,0.752c0.96,0.5013 1.712,1.2 2.256,2.096c0.544,0.8853 0.816,0.797091 0.816,3.008c0,2.210909 1.909818,2.370425 1.002182,4.357334c-0.907637,1.986909 -1.174788,0.851427 -4.074182,0.746666c-2.899394,-0.104761 -2.0426,0.752 -3.248,0.752zm0,-3.056c0.4694,0 0.8907,-0.112 1.264,-0.336c0.384,-0.2347 0.688,-0.56 0.912,-0.976c0.224,-0.4267 0.336,-0.9227 0.336,-1.488c0,-0.5653 -0.112,-1.056 -0.336,-1.472c-0.224,-0.4267 -0.528,-0.752 -0.912,-0.976c-0.3733,-0.2347 -0.7946,-0.352 -1.264,-0.352c-0.4693,0 -0.896,0.1173 -1.28,0.352c-0.3733,0.224 -0.672,0.5493 -0.896,0.976c-0.224,0.416 -0.336,0.9067 -0.336,1.472c0,0.5653 0.112,1.0613 0.336,1.488c0.224,0.416 0.5227,0.7413 0.896,0.976c0.384,0.224 0.8107,0.336 1.28,0.336z"/>
        <path id="svg_17" fill="white" d="m46.824448,52.195176l0,2.848l-9.312,0l0,-11.2l9.104,0l0,2.848l-5.3919,0l0,1.312l0,4.192l5.5999,0z"/>
        <path id="svg_18" fill="white" d="m62.987829,43.964389l3.776,0l0,11.059878l-3.776,0.140122l0,-11.2z"/>
        <path stroke="null" id="svg_19" fill="white" d="m61.925027,37.99174l4.93542,-0.284708c0,2.653078 0,1.827895 0,4.674209c-1.816437,-0.029934 -2.570072,-0.059867 -3.903418,0.006818l0.096619,-4.948784z"/>
    </g>
</svg>

<svg width="130" height="56" viewBox="0 0 130 56" fill="none" xmlns="http://www.w3.org/2000/svg">
<path d="M18.976 44.256L15.392 55.456H11.344L9.536 49.472L7.632 55.456H3.584L0 44.256H3.888L5.84 50.624L7.904 44.256H11.376L13.328 50.704L15.392 44.256H18.976Z" fill="white"/>
<path d="M25.5146 55.712C24.3093 55.712 23.2266 55.4613 22.2666 54.96C21.3066 54.4587 20.5546 53.7653 20.0106 52.88C19.4666 51.984 19.1946 50.976 19.1946 49.856C19.1946 48.736 19.4666 47.7333 20.0106 46.848C20.5546 45.952 21.3066 45.2533 22.2666 44.752C23.2266 44.2507 24.3093 44 25.5146 44C26.72 44 27.8026 44.2507 28.7626 44.752C29.7226 45.2533 30.4746 45.952 31.0186 46.848C31.5626 47.7333 31.8346 48.736 31.8346 49.856C31.8346 50.976 31.5626 51.984 31.0186 52.88C30.4746 53.7653 29.7226 54.4587 28.7626 54.96C27.8026 55.4613 26.72 55.712 25.5146 55.712ZM25.5146 52.656C25.984 52.656 26.4053 52.544 26.7786 52.32C27.1626 52.0853 27.4666 51.76 27.6906 51.344C27.9146 50.9173 28.0266 50.4213 28.0266 49.856C28.0266 49.2907 27.9146 48.8 27.6906 48.384C27.4666 47.9573 27.1626 47.632 26.7786 47.408C26.4053 47.1733 25.984 47.056 25.5146 47.056C25.0453 47.056 24.6186 47.1733 24.2346 47.408C23.8613 47.632 23.5626 47.9573 23.3386 48.384C23.1146 48.8 23.0026 49.2907 23.0026 49.856C23.0026 50.4213 23.1146 50.9173 23.3386 51.344C23.5626 51.76 23.8613 52.0853 24.2346 52.32C24.6186 52.544 25.0453 52.656 25.5146 52.656Z" fill="white"/>
<path d="M44.2451 44.256V55.456H41.1411L36.8851 50.368V55.456H33.2051V44.256H36.3091L40.5651 49.344V44.256H44.2451Z" fill="white"/>
<path d="M46.0645 44.256H51.5845C52.8325 44.256 53.9312 44.4853 54.8805 44.944C55.8405 45.392 56.5818 46.0373 57.1045 46.88C57.6378 47.7227 57.9045 48.7147 57.9045 49.856C57.9045 50.9973 57.6378 51.9893 57.1045 52.832C56.5818 53.6747 55.8405 54.3253 54.8805 54.784C53.9312 55.232 52.8325 55.456 51.5845 55.456H46.0645V44.256ZM51.4245 52.512C52.2352 52.512 52.8805 52.2827 53.3605 51.824C53.8512 51.3547 54.0965 50.6987 54.0965 49.856C54.0965 49.0133 53.8512 48.3627 53.3605 47.904C52.8805 47.4347 52.2352 47.2 51.4245 47.2H49.8405V52.512H51.4245Z" fill="white"/>
<path d="M68.5952 52.608V55.456H59.2832V44.256H68.3872V47.104H62.9953V48.416H67.7312V51.136H62.9953V52.608H68.5952Z" fill="white"/>
<path d="M74.8489 52.64H73.8249V55.456H70.0489V44.256H75.4409C76.4755 44.256 77.3769 44.4267 78.1449 44.768C78.9129 45.1093 79.5049 45.6 79.9209 46.24C80.3369 46.88 80.5449 47.6267 80.5449 48.48C80.5449 49.28 80.3635 49.9787 80.0009 50.576C79.6382 51.1733 79.1155 51.648 78.4329 52L80.7849 55.456H76.7529L74.8489 52.64ZM76.7369 48.48C76.7369 48.064 76.6089 47.744 76.3529 47.52C76.0969 47.2853 75.7129 47.168 75.2009 47.168H73.8249V49.792H75.2009C75.7129 49.792 76.0969 49.68 76.3529 49.456C76.6089 49.2213 76.7369 48.896 76.7369 48.48Z" fill="white"/>
<path d="M81.9707 44.256H85.7467V52.528H90.8027V55.456H81.9707V44.256Z" fill="white"/>
<path d="M99.634 53.504H95.378L94.626 55.456H90.786L95.682 44.256H99.394L104.29 55.456H100.386L99.634 53.504ZM98.594 50.784L97.506 47.968L96.418 50.784H98.594Z" fill="white"/>
<path d="M115.933 44.256V55.456H112.829L108.573 50.368V55.456H104.893V44.256H107.997L112.253 49.344V44.256H115.933Z" fill="white"/>
<path d="M117.752 44.256H123.272C124.52 44.256 125.619 44.4853 126.568 44.944C127.528 45.392 128.269 46.0373 128.792 46.88C129.325 47.7227 129.592 48.7147 129.592 49.856C129.592 50.9973 129.325 51.9893 128.792 52.832C128.269 53.6747 127.528 54.3253 126.568 54.784C125.619 55.232 124.52 55.456 123.272 55.456H117.752V44.256ZM123.112 52.512C123.923 52.512 124.568 52.2827 125.048 51.824C125.539 51.3547 125.784 50.6987 125.784 49.856C125.784 49.0133 125.539 48.3627 125.048 47.904C124.568 47.4347 123.923 47.2 123.112 47.2H121.528V52.512H123.112Z" fill="white"/>
<path fill-rule="evenodd" clip-rule="evenodd" d="M48 3.96002H71.28V5.16002H49.2V19.36H48V3.96002ZM79.2 35.16V24.96H80.4V36.36H55.88V35.16H79.2ZM49.2 35.16V25.76H48V36.36H51.24V35.16H49.2Z" fill="white"/>
<path fill-rule="evenodd" clip-rule="evenodd" d="M77.0109 9.96365C77.0665 10.175 76.6586 10.5297 76.1319 10.9875C75.1375 11.852 73.72 13.0843 74.2006 14.4149C73.0912 15.0437 71.5814 17.6413 72.2724 19.0299L71.3405 19.5233C71.3196 19.5172 69.8966 19.0978 69.3407 18.8034C69.207 18.7326 68.974 18.6407 68.6958 18.5308C67.8086 18.1808 66.461 17.649 66.4001 17.0401C66.3272 16.3107 67.8168 12.0242 68.0805 11.2725C68.1524 11.118 68.2364 10.964 68.3202 10.81L68.3202 10.81C68.5153 10.452 68.7102 10.0942 68.7545 9.73111C68.7783 9.53687 68.7285 9.38402 68.5154 9.5273C68.4401 9.58504 68.395 9.73943 68.354 9.87931C68.3083 10.0357 68.2678 10.1739 68.1966 10.1387C68.1475 10.1144 68.1965 9.93184 68.2605 9.69349C68.3845 9.23187 68.5645 8.56117 68.1966 8.42676C67.9312 8.32982 67.519 8.46752 67.3596 9.3235C67.2394 9.96924 67.2396 10.2308 67.24 10.7028V10.7029L67.24 10.7533C66.9178 11.3457 64.7601 15.3745 64.7601 17.0401C64.7601 18.2418 65.0751 18.5241 66.1479 19.486C66.3964 19.7087 66.6855 19.9679 67.0207 20.2834L64.146 24.2443C63.3751 24.474 61.548 23.8381 59.7057 23.197C57.573 22.4548 55.42 21.7055 54.8608 22.2833C54.5752 22.5785 54.7639 23.0924 54.9547 23.612C55.0397 23.8434 55.1251 24.0759 55.1692 24.2907L50.5004 23.4468C50.1871 23.3778 50.0498 22.9063 50.0226 22.5944C50.1051 22.1183 50.3059 20.7659 50.2604 20.5268C50.228 20.3562 50.1518 20.29 49.9062 20.16L48.0398 23.9388C48.476 24.2921 49.0599 24.436 49.6204 24.4868L49.6205 24.4866C50.1462 24.6336 52.4174 25.2729 54.5974 25.9534C54.1253 27.4012 54.4723 28.9743 54.7972 30.2453L51.9326 37.5517C51.8042 37.8458 51.3148 37.8892 51.0036 37.8555C50.5523 37.6823 49.2647 37.2236 49.0213 37.2219C48.8477 37.2207 48.768 37.2827 48.5928 37.4985L51.9389 40.0611C52.3699 39.7015 52.6241 39.1565 52.7825 38.6164L52.7824 38.6163C53.0836 38.0196 54.6174 34.9948 55.9155 32.696C56.6004 33.115 57.5445 33.0687 58.1808 32.7633C58.6734 32.5268 59.3961 32.517 60.2399 32.5054C61.4571 32.4888 62.9263 32.4687 64.3202 31.76C65.2422 31.2911 67.0998 29.46 67.4742 28.5351C69.3585 27.1521 70.5572 26.3949 72.3418 25.4713C72.6903 25.8333 73.0319 26.2073 73.356 26.5622L73.3561 26.5622C74.0087 27.2766 74.5902 27.9133 75.0129 28.217C76.1179 29.0109 77.0552 28.5729 77.7959 27.7758C78.1971 27.3439 78.4945 26.2393 78.8079 25.0753L78.8079 25.0752C78.9504 24.5456 79.0963 24.0038 79.2568 23.5073H79.2584C79.4604 23.0282 79.5776 22.6867 79.7206 22.0177C79.8994 21.1815 79.5708 20.8963 79.2884 20.8806C78.8968 20.8587 78.8077 21.5354 78.7464 22.0011C78.7148 22.2416 78.6905 22.4259 78.6359 22.4287C78.5565 22.4327 78.5718 22.292 78.5891 22.1327V22.1327C78.6045 21.9903 78.6216 21.833 78.574 21.7515C78.4316 21.5389 78.3272 21.6577 78.2752 21.8426C78.1778 22.1882 78.2217 22.5877 78.2656 22.9875C78.2807 23.1248 78.2958 23.2621 78.3052 23.3973C78.1641 23.7848 77.0316 26.817 76.1329 26.817C75.1729 26.817 73.9198 23.5968 73.9198 23.5968L73.9187 23.597L72.7641 21.114L72.769 21.1078C72.8396 21.015 72.9275 20.8751 73.0328 20.7074C73.132 20.5495 73.2466 20.3671 73.3767 20.1762C74.2195 20.5769 75.2549 20.2844 76.2328 19.2537C79.8034 21.3106 80.8567 18.5545 81.5198 16.56C82.2 15.8884 81.82 14.4645 81.4995 13.2633C81.2479 12.3208 81.033 11.5154 81.3956 11.3182C82.2417 10.8582 82.0732 10.5017 81.8299 9.98667C81.6859 9.68178 81.5156 9.32134 81.514 8.85096C81.5122 8.28221 81.6135 7.95583 81.7049 7.6615C81.8168 7.30125 81.9137 6.98899 81.7882 6.33906C81.6759 5.75751 81.2203 5.51993 80.716 5.25703C80.1964 4.98607 79.6251 4.68823 79.3251 3.95918C76.6225 -2.60826 71.7575 2.05109 72.2074 3.81398C72.4308 4.6891 72.9923 5.30214 73.8516 6.2402C73.917 6.31151 73.984 6.3847 74.0528 6.46002C74.3406 6.77541 74.4013 7.2261 74.4557 7.63042C74.4983 7.94687 74.537 8.23491 74.6779 8.40743C75.1835 9.02652 75.7814 9.25025 76.2477 9.42474C76.6386 9.57101 76.937 9.68267 77.0109 9.96365Z" fill="white"/>
</svg>
